X: 1
T: Glountane School - 1862
M: 4/4
L: 1/8
R: reel
K: Dmaj
D2FA BAFA|defd edBc|~d3A BdAF|GBAG ~F3E|
D2FA BAFA|defd edBc|~d3A BdAF|1 GBAG FD~D2:|2 GBAG FDDc||
|:d2fd adfd|bfaf edBc|defg a2bf|afed Beec|
d2fd adfd|bfaf edBc|defg a2bf|1 afef d3A:|2 afef d3C||
